recipes/grape/icon.svg

<svg height="80" viewBox="0 0 80 80" width="80" xmlns="http://www.w3.org/2000/svg" xmlns:xlink="http://www.w3.org/1999/xlink"><linearGradient id="a" x1="50%" x2="50%" y1="0%" y2="78.332%"><stop offset="0" stop-color="#00c4ff"/><stop offset="1" stop-color="#007fff"/></linearGradient><path d="m38.3913705 20.309578c-1.8520548.1285179-5.1136724-.2664647-9.1025457-3.3876946-6.2881551-4.9209122-5.6108784-9.97712625-5.4657137-10.80039839.141663-.8034122 6.0242893-1.9829806 12.1523425 2.53366484-.96011 2.40038925-.9750589 4.62070405-.7557695 6.22804745.1766822-2.9206342 1.4522046-6.68950559 5.8505761-10.07568015 8.7900215-6.76690903 17.3918792-5.12648983 17.590556-3.9997353s1.1201276 8.04780631-7.6693752 14.81504115c-5.4997288 4.2339105-10.0009024 4.8321374-12.6000705 4.686755zm11.5365596 23.8143341c2.3396463 2.4915201 5.5422956 4.151024 9.1256211 4.4922794.8750904 1.4989998 1.3770014 3.2459505 1.3770014 5.1110782 0 5.573482-4.481907 10.0916819-10.0106194 10.0916819s-10.0106193-4.5181999-10.0106193-10.0916819c0-1.9351792.5403211-3.7431376 1.4771753-5.2789229 1.5435894-.2813384 3.0019347-.8096786 4.3333066-1.5429535 1.3815852-.7240339 2.6326127-1.6662984 3.7081343-2.7814812zm1.6042942-18.3367228c2.2415343-2.5503944 5.5149716-4.1579847 9.1608658-4.1579847 6.7573152 0 12.2352015 5.5222443 12.2352015 12.3342779s-5.4778863 12.3342779-12.2352015 12.3342779c-3.6458942 0-6.9193315-1.6075903-9.1608658-4.1579847.641242-.9523908 1.1735962-1.9853234 1.5790283-3.0806178 1.5189769 2.6518634 4.3531536 4.4353575 7.598732 4.4353575 3.872568 0 7.1594298-2.5391339 8.3252883-6.0628641-2.0119425 2.3525924-4.9833939 3.8408542-8.2981452 3.8408542-2.8472696 0-5.4412428-1.0980816-7.3913838-2.8988149.4375513-1.3912737.6735999-2.8729516.6735999-4.4102081 0-3.0303216-.9172468-5.8446739-2.4871195-8.1762932zm-24.2078655 16.3525864c-2.2415343 2.5503944-5.5149716 4.1579847-9.1608658 4.1579847-6.7573152 0-12.23520145-5.5222443-12.23520145-12.3342779s5.47788625-12.3342779 12.23520145-12.3342779c3.6458942 0 6.9193315 1.6075903 9.1608658 4.1579847-1.5698727 2.3316193-2.4871195 5.1459716-2.4871195 8.1762932 0 1.5603007.2431786 3.0633441.6934129 4.4727147-1.9422146 1.7636052-4.508947 2.8363083-7.3231215 2.8363083-3.3634629 0-6.3734619-1.5323244-8.3862205-3.945129 1.1350374 3.5778036 4.4484142 6.1671389 8.3590773 6.1671389 3.2310087 0 6.0543011-1.7675175 7.5781961-4.3996968.403754 1.0820583.9314967 2.1029087 1.5657752 3.0449571zm9.3831977 6.3085711c.9368541 1.5357853 1.4771753 3.3437437 1.4771753 5.2789229 0 5.573482-4.481907 10.0916819-10.0106194 10.0916819s-10.0106194-4.5181999-10.0106194-10.0916819c0-1.8651277.5019111-3.6120784 1.3770015-5.1110782 3.6161828-.3443845 6.8446763-2.0313039 9.1897634-4.5610271 2.0796161 2.2433508 4.8539508 3.8239133 7.9772986 4.3931824zm12.1809163 17.8373288c.2726803.9181773.4191694 1.8913084.4191694 2.8989309 0 5.5734821-4.481907 10.0916819-10.0106194 10.0916819s-10.0106194-4.5181998-10.0106194-10.0916819c0-1.0076225.1464892-1.9807536.4191694-2.8989309 4.2722603-.5377989 7.8602247-3.2961073 9.59145-7.0929884 1.7312254 3.7968811 5.3191897 6.5551895 9.59145 7.0929884zm-16.4212891 5.6108047c.9080299 2.9272939 3.5587313 5.045841 6.6872618 5.045841 3.0980545 0 5.7275439-2.0774732 6.6602307-4.9605252-1.609554 1.9248483-3.9867151 3.1425171-6.6385162 3.1425171-2.6907702 0-5.0987694-1.25372-6.7089763-3.2278329zm-10.9668176-15.3659656c.90803 2.9272938 3.5587314 5.0458409 6.6872619 5.0458409 3.0980544 0 5.7275438-2.0774732 6.6602306-4.9605252-1.609554 1.9248483-3.9867151 3.1425172-6.6385161 3.1425172-2.6907703 0-5.0987694-1.2537201-6.7089764-3.2278329zm22.2458209 0c.9080299 2.9272938 3.5587313 5.0458409 6.6872618 5.0458409 3.0980545 0 5.7275439-2.0774732 6.6602307-4.9605252-1.609554 1.9248483-3.9867151 3.1425172-6.6385162 3.1425172-2.6907702 0-5.0987694-1.2537201-6.7089763-3.2278329zm-4.4491642-10.2327543c6.7573152 0 12.2352015-5.5222443 12.2352015-12.3342779s-5.4778863-12.3342779-12.2352015-12.3342779-12.2352014 5.5222443-12.2352014 12.3342779 5.4778862 12.3342779 12.2352014 12.3342779zm-8.3421828-8.9703839c1.1350374 3.5778036 4.4484142 6.1671389 8.3590773 6.1671389 3.8725681 0 7.1594298-2.5391339 8.3252883-6.0628641-2.0119425 2.3525924-4.9833939 3.8408542-8.2981452 3.8408542-3.3634628 0-6.3734618-1.5323244-8.3862204-3.945129z" fill="url(#a)" fill-rule="evenodd"/></svg>

<?xml version="1.0" encoding="UTF-8" standalone="no"?>
<svg width="80px" height="80px" viewBox="0 0 80 80" version="1.1" xmlns="http://www.w3.org/2000/svg" xmlns:xlink="http://www.w3.org/1999/xlink">
    <!-- Generator: Sketch 3.7.2 (28276) - http://www.bohemiancoding.com/sketch -->
    <title>grape</title>
    <desc>Created with Sketch.</desc>
    <defs>
        <linearGradient x1="50%" y1="0%" x2="50%" y2="78.3318015%" id="linearGradient-1">
            <stop stop-color="#00C4FF" offset="0%"></stop>
            <stop stop-color="#007FFF" offset="100%"></stop>
        </linearGradient>
    </defs>
    <g id="icons" stroke="none" stroke-width="1" fill="none" fill-rule="evenodd">
        <g id="grape" fill="url(#linearGradient-1)">
            <path d="M38.3913705,20.309578 C36.5393157,20.4380959 33.2776981,20.0431133 29.2888248,16.9218834 C23.0006697,12.0009712 23.6779464,6.94475715 23.8231111,6.12148501 C23.9647741,5.31807281 29.8474004,4.13850441 35.9754536,8.65514985 C35.0153436,11.0555391 35.0003947,13.2758539 35.2196841,14.8831973 C35.3963663,11.9625631 36.6718887,8.19369171 41.0702602,4.80751715 C49.8602817,-1.95939188 58.4621394,-0.318972678 58.6608162,0.80778185 C58.859493,1.93453638 59.7809438,8.85558816 50.991441,15.622823 C45.4917122,19.8567335 40.9905386,20.4549604 38.3913705,20.309578 Z M49.9279301,44.1239121 C52.2675764,46.6154322 55.4702257,48.2749361 59.0535512,48.6161915 C59.9286416,50.1151913 60.4305526,51.862142 60.4305526,53.7272697 C60.4305526,59.3007517 55.9486456,63.8189516 50.4199332,63.8189516 C44.8912208,63.8189516 40.4093139,59.3007517 40.4093139,53.7272697 C40.4093139,51.7920905 40.949635,49.9841321 41.8864892,48.4483468 C43.4300786,48.1670084 44.8884239,47.6386682 46.2197958,46.9053933 C47.601381,46.1813594 48.8524085,45.2390949 49.9279301,44.1239121 Z M51.5322243,25.7871893 C53.7737586,23.2367949 57.0471959,21.6292046 60.6930901,21.6292046 C67.4504053,21.6292046 72.9282916,27.1514489 72.9282916,33.9634825 C72.9282916,40.7755161 67.4504053,46.2977604 60.6930901,46.2977604 C57.0471959,46.2977604 53.7737586,44.6901701 51.5322243,42.1397757 C52.1734663,41.1873849 52.7058205,40.1544523 53.1112526,39.0591579 C54.6302295,41.7110213 57.4644062,43.4945154 60.7099846,43.4945154 C64.5825526,43.4945154 67.8694144,40.9553815 69.0352729,37.4316513 C67.0233304,39.7842437 64.051879,41.2725055 60.7371277,41.2725055 C57.8898581,41.2725055 55.2958849,40.1744239 53.3457439,38.3736906 C53.7832952,36.9824169 54.0193438,35.500739 54.0193438,33.9634825 C54.0193438,30.9331609 53.102097,28.1188086 51.5322243,25.7871893 Z M27.3243588,42.1397757 C25.0828245,44.6901701 21.8093872,46.2977604 18.163493,46.2977604 C11.4061778,46.2977604 5.92829155,40.7755161 5.92829155,33.9634825 C5.92829155,27.1514489 11.4061778,21.6292046 18.163493,21.6292046 C21.8093872,21.6292046 25.0828245,23.2367949 27.3243588,25.7871893 C25.7544861,28.1188086 24.8372393,30.9331609 24.8372393,33.9634825 C24.8372393,35.5237832 25.0804179,37.0268266 25.5306522,38.4361972 C23.5884376,40.1998024 21.0217052,41.2725055 18.2075307,41.2725055 C14.8440678,41.2725055 11.8340688,39.7401811 9.8213102,37.3273765 L9.8213102,37.3273765 C10.9563476,40.9051801 14.2697244,43.4945154 18.1803875,43.4945154 C21.4113962,43.4945154 24.2346886,41.7269979 25.7585836,39.0948186 C26.1623376,40.1768769 26.6900803,41.1977273 27.3243588,42.1397757 Z M36.7075565,48.4483468 C37.6444106,49.9841321 38.1847318,51.7920905 38.1847318,53.7272697 C38.1847318,59.3007517 33.7028248,63.8189516 28.1741124,63.8189516 C22.6454,63.8189516 18.163493,59.3007517 18.163493,53.7272697 C18.163493,51.862142 18.6654041,50.1151913 19.5404945,48.6161915 C23.1566773,48.271807 26.3851708,46.5848876 28.7302579,44.0551644 C30.809874,46.2985152 33.5842087,47.8790777 36.7075565,48.4483468 Z M48.8884728,66.2856756 C49.1611531,67.2038529 49.3076422,68.176984 49.3076422,69.1846065 C49.3076422,74.7580886 44.8257352,79.2762884 39.2970228,79.2762884 C33.7683104,79.2762884 29.2864034,74.7580886 29.2864034,69.1846065 C29.2864034,68.176984 29.4328926,67.2038529 29.7055728,66.2856756 C33.9778331,65.7478767 37.5657975,62.9895683 39.2970228,59.1926872 C41.0282482,62.9895683 44.6162125,65.7478767 48.8884728,66.2856756 Z M32.4671837,71.8964803 C33.3752136,74.8237742 36.025915,76.9423213 39.1544455,76.9423213 C42.2525,76.9423213 44.8819894,74.8648481 45.8146762,71.9817961 C44.2051222,73.9066444 41.8279611,75.1243132 39.17616,75.1243132 C36.4853898,75.1243132 34.0773906,73.8705932 32.4671837,71.8964803 Z M21.5003661,56.5305147 C22.4083961,59.4578085 25.0590975,61.5763556 28.187628,61.5763556 C31.2856824,61.5763556 33.9151718,59.4988824 34.8478586,56.6158304 C33.2383046,58.5406787 30.8611435,59.7583476 28.2093425,59.7583476 C25.5185722,59.7583476 23.1105731,58.5046275 21.5003661,56.5305147 L21.5003661,56.5305147 Z M43.746187,56.5305147 C44.6542169,59.4578085 47.3049183,61.5763556 50.4334488,61.5763556 C53.5315033,61.5763556 56.1609927,59.4988824 57.0936795,56.6158304 C55.4841255,58.5406787 53.1069644,59.7583476 50.4551633,59.7583476 C47.7643931,59.7583476 45.3563939,58.5046275 43.746187,56.5305147 L43.746187,56.5305147 Z M39.2970228,46.2977604 C46.054338,46.2977604 51.5322243,40.7755161 51.5322243,33.9634825 C51.5322243,27.1514489 46.054338,21.6292046 39.2970228,21.6292046 C32.5397076,21.6292046 27.0618214,27.1514489 27.0618214,33.9634825 C27.0618214,40.7755161 32.5397076,46.2977604 39.2970228,46.2977604 Z M30.95484,37.3273765 C32.0898774,40.9051801 35.4032542,43.4945154 39.3139173,43.4945154 C43.1864854,43.4945154 46.4733471,40.9553815 47.6392056,37.4316513 C45.6272631,39.7842437 42.6558117,41.2725055 39.3410604,41.2725055 C35.9775976,41.2725055 32.9675986,39.7401811 30.95484,37.3273765 L30.95484,37.3273765 Z" id="Oval-411-Copy-5"></path>
        </g>
    </g>
</svg>
